X:3299
T:Concertina Polka, The
R:polka
M:2/4
L:1/8
K:D
ad cd|e/d/c/B/ AB/c/|d2>z2|fa ^ga|
ba gf|e/f/ g2 f|e>^d e/d/d/f/|gg fe|
d/e/ f2 e|dd cd|e/d/c/B/ aB/c/|d2>z2|
fa ^ga|ba gf|e/f/g2 f|e>^d e/d/e/f/|
gg fe|d/e/ f2 e|dd cd|e/d/c/B/ AB/c/|d2>z2:|
|:b2 b2|a^g a2|ab/a/gf/e/|1 d/e/f/g/ a2:|2 dfdz||


